src/images/svg/market-forex.svg

<svg width="64px" height="64px" viewBox="0 0 64 64" version="1.1" xmlns="http://www.w3.org/2000/svg" xmlns:xlink="http://www.w3.org/1999/xlink" aria-labelledby='market-forex' role='img'>
    <!-- Generator: Sketch 59.1 (86144) - https://sketch.com -->
    <title id='market-forex'>icons/forex</title>
    <desc>Created with Sketch.</desc>
    <defs>
        <linearGradient x1="1.82258515%" y1="100%" x2="98.1774148%" y2="0%" id="linearGradient-1">
            <stop stop-color="#FF444F" offset="0%"></stop>
            <stop stop-color="#FF6444" offset="100%"></stop>
        </linearGradient>
    </defs>
    <g id="Homepage" stroke="none" stroke-width="1" fill="none" fill-rule="evenodd">
        <g id="Homepage---Main" transform="translate(-222.000000, -2341.000000)">
            <g id="Markets" transform="translate(0.000000, 2176.000000)">
                <g id="Forex" transform="translate(222.000000, 165.000000)">
                    <g id="icons/forex">
                        <g>
                            <rect id="Rectangle" x="0" y="0" width="64" height="64"></rect>
                            <path d="M41,4.54747351e-13 C53.1502645,4.54747351e-13 63,9.8497355 63,22 C63,32.8059921 55.2091939,41.792344 44.9381139,43.6485233 C44.0966313,55.0283523 34.596036,64 23,64 C10.8497355,64 1,54.1502645 1,42 C1,31.1939902 8.79083162,22.2076266 19.0619366,20.3514676 C19.9034395,8.97158082 29.4040073,4.54747351e-13 41,4.54747351e-13 Z M23,22 C11.954305,22 3,30.954305 3,42 C3,53.045695 11.954305,62 23,62 C34.045695,62 43,53.045695 43,42 C43,30.954305 34.045695,22 23,22 Z M33.1478219,54.411018 C33.4704366,54.8592792 33.36858,55.4841977 32.9203188,55.8068125 C30.1666016,57.7886699 26.8840329,58.9082027 23.4323192,58.9945943 L22.9459338,58.9999157 C22.3936517,58.9981942 21.9473342,58.5490855 21.949041,57.9968035 C21.9506543,57.4839701 22.3380102,57.0625042 22.8355265,57.0062896 L22.9760794,56.9999814 L23,57 C26.1867654,57 29.2211235,56.0050129 31.7520273,54.1835149 C32.2002886,53.8609001 32.8252071,53.9627567 33.1478219,54.411018 Z M47.7177266,55.8315437 C49.169098,56.2868928 50.7158181,56.3697396 52.218734,56.0752299 C52.7607109,55.9690248 53.2861662,56.3222876 53.3923714,56.8642644 C53.4985765,57.4062413 53.1453137,57.9316966 52.6033369,58.0379018 C50.7744098,58.3962961 48.8896585,58.2953435 47.1190262,57.7398303 C46.5920674,57.5745037 46.2989065,57.0132956 46.4642331,56.4863368 C46.6295596,55.959378 47.1907678,55.6662171 47.7177266,55.8315437 Z M60.4227061,50.144015 C60.9230094,50.3779275 61.1389618,50.973127 60.9050493,51.4734303 C60.2136789,52.9521668 59.2281405,54.2763696 57.9944034,55.3645351 C57.8590682,55.4839018 57.7213608,55.599889 57.5813735,55.7124428 C57.1509588,56.0585087 56.5214969,55.9901305 56.175431,55.5597158 C55.8293651,55.1293011 55.8977433,54.4998391 56.328158,54.1537732 C56.4444554,54.0602668 56.5589112,53.9638637 56.6714514,53.8646024 C57.6976565,52.9594818 58.5174689,51.857954 59.0932908,50.6263583 C59.3272033,50.126055 59.9224028,49.9101025 60.4227061,50.144015 Z M8.72287267,46.6144432 C9.69484628,49.6241203 11.60485,52.2508244 14.1544277,54.1156437 C14.6001987,54.4416908 14.6972541,55.0673729 14.3712071,55.5131439 C14.04516,55.9589148 13.4194779,56.0559703 12.9737069,55.7299232 C10.0856143,53.6175064 7.92176425,50.641704 6.81966063,47.2290845 C6.64993212,46.703527 6.93838851,46.1398863 7.463946,45.9701578 C7.98950349,45.8004293 8.55314416,46.0888857 8.72287267,46.6144432 Z M23.0634921,33 C23.5763279,33 23.9989992,33.3860402 24.0567643,33.8833789 L24.0634921,34 L24.0632428,35.0491997 C26.8584697,35.2508582 28.6349206,37.1854293 28.6349206,40.0952381 C28.6349206,40.6475228 28.1872054,41.0952381 27.6349206,41.0952381 C27.0826359,41.0952381 26.6349206,40.6475228 26.6349206,40.0952381 C26.6349206,38.1227926 25.5438741,37.031746 23.5714286,37.031746 C21.7232318,37.031746 20.3835771,37.9649259 20.0700837,39.419789 L27.3294389,42.0555345 C27.4057321,42.0821438 27.4778136,42.1177363 27.5444162,42.1610448 C27.5452686,42.1614718 27.5465372,42.1622965 27.5478034,42.1631238 L27.625449,42.2196888 C27.6264933,42.2205269 27.6275359,42.2213671 27.6285768,42.2222093 L27.655991,42.2449141 L27.655991,42.2449141 L27.6947354,42.280689 L27.6947354,42.280689 L27.7199734,42.305674 L27.7580869,42.3475745 L27.7580869,42.3475745 C27.7672384,42.3584471 27.776195,42.3693001 27.7849236,42.3803416 L27.8150692,42.4204793 L27.8150692,42.4204793 C27.8281824,42.438926 27.8404736,42.4574697 27.8521495,42.4764328 C27.8597221,42.4889508 27.8674479,42.5021943 27.874865,42.5156034 C27.8842794,42.5322317 27.8929809,42.5490268 27.9012121,42.5660913 C27.926814,42.6198298 27.9478076,42.6755673 27.9637465,42.7328856 C27.9682304,42.7484645 27.9721045,42.7639235 27.9756142,42.7795204 L27.9852553,42.8279257 C27.994951,42.8838798 28,42.9413503 28,43 C28,46.0329601 26.7263061,47.8508123 24.0631763,48.0459753 L24.0634921,48.2222222 C24.0634921,48.774507 23.6157768,49.2222222 23.0634921,49.2222222 C22.5506562,49.2222222 22.1279849,48.836182 22.0702198,48.3388433 L22.0634921,48.2222222 L22.0625457,47.898251 C19.6761687,47.3555116 18,45.5171972 18,43 C18,42.4477153 18.4477153,42 19,42 C19.5522847,42 20,42.4477153 20,43 C20,44.8351932 21.4510299,46.0634921 23.5714286,46.0634921 C25.1382674,46.0634921 25.837094,45.3873464 25.9742802,43.6926798 L18.6587062,41.0351948 C18.5596897,40.9992423 18.4698081,40.949278 18.3904871,40.8883527 C18.3843054,40.8833223 18.3778121,40.878199 18.3713847,40.8729976 C18.3514273,40.8571713 18.3324254,40.8405643 18.3141347,40.8233172 L18.2800266,40.7895641 L18.2551874,40.7625258 C18.1433895,40.6378234 18.0624519,40.4848836 18.0243858,40.3157177 C18.0077475,40.242109 17.9992575,40.1659059 17.9997479,40.0888511 C18.0031293,37.5746107 19.6783958,35.7392199 22.0625457,35.1969871 L22.0634921,34 C22.0634921,33.4477153 22.5112073,33 23.0634921,33 Z M39.163401,36.7187566 C39.7091606,38.3900855 39.9934267,40.1452912 39.9998939,41.9410233 C40.0000042,43.8028088 39.7187918,45.5776359 39.1659313,47.2734884 C38.9947494,47.7985743 38.4303128,48.0854701 37.9052269,47.9142883 C37.380141,47.7431064 37.0932451,47.1786698 37.264427,46.6535839 C37.7519361,45.1581913 37.9999917,43.592628 37.9999003,41.9446874 C37.9941934,40.3615792 37.7434519,38.8133716 37.2621967,37.3395803 C37.090761,36.8145772 37.377384,36.250002 37.902387,36.0785663 C38.4273901,35.9071306 38.9919653,36.1937536 39.163401,36.7187566 Z M59.1671726,39.5210317 L59.2829392,39.5471173 L62.5865969,40.4944259 C62.9148674,40.5885559 63.1709736,40.8401392 63.2737395,41.1600559 L63.3049303,41.2830537 L63.3992599,41.7842654 C63.4194667,41.8916319 63.4143075,42.0022345 63.3841937,42.1072537 C63.2871477,42.4456932 62.9573883,42.6543588 62.618532,42.6092977 L62.5168259,42.5880436 L61.3042336,42.2392586 C61.7678951,43.4868094 62.0152991,44.8045454 62.0397797,46.1405899 C62.0498977,46.6927819 61.6104598,47.1486242 61.0582677,47.1587422 C60.5060756,47.1688601 60.0502333,46.7294222 60.0401154,46.1772301 C60.0191486,45.0329564 59.801985,43.906564 59.3948378,42.8441338 L58.8924473,44.5944664 C58.8624099,44.6992193 58.8083958,44.7955403 58.7346825,44.875801 C58.498671,45.132776 58.1153897,45.1737683 57.8329438,44.9882277 L57.7428702,44.9179763 L57.36877,44.5743944 C57.1168612,44.3430358 57.000362,44.0028158 57.0520733,43.6702901 L57.0794139,43.5461814 L58.0264069,40.2436245 C58.1700073,39.7428302 58.6653366,39.4381794 59.1671726,39.5210317 Z M41,2 C30.6015375,2 22.056552,9.93567822 21.0908525,20.0812255 C21.7199493,20.0276065 22.3567507,20 23,20 C28.0886033,20 32.7736974,21.7276282 36.5007334,24.6283358 L36.4996526,21.9079384 C36.1809657,21.7685821 36,21.4694596 36,21 C36,20.5305404 36.1809657,20.2314179 36.4996526,20.0920616 L36.4996526,16.9079384 C36.1809657,16.7685821 36,16.4694596 36,16 C36,15.6676482 36.2111108,15.420667 36.4998055,15.255306 L36.5,14.5 C36.5,13.8094755 36.9389488,13.5 37.5,13.5 C38.0236478,13.5 38.4409308,13.7695875 38.4942412,14.3669545 L38.5,14.5 L38.5,14.999 L40.5,14.999 L40.5,14 C40.5,13.3187236 40.798686,13 41.5,13 C42.1545597,13 42.4583857,13.2776436 42.4959867,13.8685658 L42.5,14 L42.5,15 C43.4007767,14.9954456 44.4345324,14.8594079 45.1087354,15.4883005 L45.238636,15.6245436 C45.8367459,16.3288378 46.1890256,17.2548043 46.2396834,18.2279077 L46.2460317,18.4720645 L46.2460317,18.901254 C46.2460317,19.6205725 46.0627966,20.1980071 45.7481917,20.6503276 C46.3405759,21.3539019 46.6895583,22.2758893 46.7397427,23.244482 L46.7460317,23.4875017 L46.7460317,23.9166912 C46.7460317,26.077734 45.0921936,26.9581647 43.1909019,27.012718 L43,27.0154372 L42.5267007,27.0152913 L42.5275305,27.0275123 L42.5275305,27.0275123 L42.531746,27.1609977 L42.5,28 C42.5,28.6812764 42.201314,29 41.5,29 C40.8454403,29 40.5416143,28.7223564 40.5040133,28.1314342 L40.5,28 L40.5,27.1609977 C40.5,27.1113213 40.5016725,27.0627166 40.5050454,27.0152913 L39.1077235,27.0151689 C41.5925731,29.6850255 43.4216218,32.973456 44.3384399,36.6240305 C46.2882108,36.1846576 48.1242477,35.3550321 49.7520273,34.1835149 C50.2002886,33.8609001 50.8252071,33.9627567 51.1478219,34.411018 C51.4704366,34.8592792 51.36858,35.4841977 50.9203188,35.8068125 C49.0628226,37.1436573 46.9646957,38.0881392 44.7363395,38.5878311 C44.8901833,39.5715991 44.9782118,40.5773756 44.9964399,41.6001864 C54.1271104,39.7490202 61,31.6771348 61,22 C61,10.954305 52.045695,2 41,2 Z M14.4524884,28.435181 C14.7758602,28.8828965 14.6750596,29.5079862 14.2273442,29.8313579 C11.6666199,31.6808938 9.74087767,34.296524 8.75080217,37.299961 C8.57789533,37.8244814 8.01251883,38.1095206 7.48799841,37.9366137 C6.96347799,37.7637069 6.67843887,37.1983304 6.85134571,36.67381 C7.97395251,33.2683334 10.1555777,30.3051515 13.0563115,28.2100367 C13.504027,27.886665 14.1291167,27.9874655 14.4524884,28.435181 Z M23,25 C26.6361026,25 30.1021837,26.145464 32.9824274,28.2380995 C33.429234,28.5627259 33.5282805,29.1880959 33.2036541,29.6349025 C32.8790276,30.0817091 32.2536576,30.1807556 31.806851,29.8561292 C29.2655063,28.0097201 26.2101751,27 23,27 C22.4477153,27 22,26.5522847 22,26 C22,25.4477153 22.4477153,25 23,25 Z M57.163401,16.7187566 C57.7091606,18.3900855 57.9934267,20.1452912 57.9998939,21.9410233 C58.0000042,23.8028088 57.7187918,25.5776359 57.1659313,27.2734884 C56.9947494,27.7985743 56.4303128,28.0854701 55.9052269,27.9142883 C55.380141,27.7431064 55.0932451,27.1786698 55.264427,26.6535839 C55.7519361,25.1581913 55.9999917,23.592628 55.9999003,21.9446874 C55.9941934,20.3615792 55.7434519,18.8133716 55.2621967,17.3395803 C55.090761,16.8145772 55.377384,16.250002 55.902387,16.0785663 C56.4273901,15.9071306 56.9919653,16.1937536 57.163401,16.7187566 Z M2.9417323,18.8412578 C3.49392436,18.8311399 3.94976668,19.2705778 3.95988461,19.8227699 C3.98084484,20.9666865 4.1978795,22.0927331 4.60478118,23.1548717 L5.1075527,21.4055336 C5.13759012,21.3007807 5.19160423,21.2044597 5.26531748,21.124199 C5.50132903,20.867224 5.8846103,20.8262317 6.16705616,21.0117723 L6.25712979,21.0820237 L6.63123003,21.4256056 C6.88313883,21.6569642 6.99963799,21.9971842 6.94792671,22.3297099 L6.92058606,22.4538186 L5.97359313,25.7563755 C5.82999267,26.2571698 5.33466344,26.5618206 4.83282744,26.4789683 L4.71706076,26.4528827 L1.4134031,25.5055741 C1.08513256,25.4114441 0.829026378,25.1598608 0.726260542,24.8399441 L0.69506973,24.7169463 L0.600740076,24.2157346 C0.580533315,24.1083681 0.585692532,23.9977655 0.615806314,23.8927463 C0.712852275,23.5543068 1.04261169,23.3456412 1.38146798,23.3907023 L1.48317415,23.4119564 L2.69539369,23.7597386 C2.2319723,22.5124844 1.98469434,21.1950966 1.96022027,19.8594101 C1.95010234,19.3072181 2.38954024,18.8513758 2.9417323,18.8412578 Z M43.1144272,22.0155251 L38.5,22.015 L38.5,25.015 L43,25.0154372 C43.6502816,25.0154372 44.399991,24.8585615 44.481285,24.0636844 L44.4885362,23.9166912 L44.4885362,23.4875017 C44.4885362,23.0355877 44.3382401,22.6077753 44.0794251,22.3030122 C43.8651264,22.0506683 43.4349647,22.018432 43.1144272,22.0155251 Z M41.473,16.999 L38.5,16.999 L38.5,19.999 L42.5,20 C43.1502816,20 43.899991,19.8431243 43.981285,19.0482472 L43.9885362,18.901254 L43.9885362,18.4720645 C43.9885362,18.0201505 43.8382401,17.5923381 43.5794251,17.287575 C43.3651264,17.0352311 42.9349647,17.0029947 42.6144272,17.0000879 L42.5,17 L41.5280442,16.9998274 C41.5187686,16.9999425 41.5094206,17 41.5,17 L41.473,16.999 Z M32.4524884,8.435181 C32.7758602,8.88289648 32.6750596,9.5079862 32.2273442,9.83135794 C29.6666199,11.6808938 27.7408777,14.296524 26.7508022,17.299961 C26.5778953,17.8244814 26.0125188,18.1095206 25.4879984,17.9366137 C24.963478,17.7637069 24.6784389,17.1983304 24.8513457,16.67381 C25.9739525,13.2683334 28.1555777,10.3051515 31.0563115,8.21003674 C31.504027,7.88666499 32.1291167,7.98746551 32.4524884,8.435181 Z M7.82456902,10.4402842 C8.17063492,10.8706989 8.10225669,11.5001609 7.67184196,11.8462268 C7.55554463,11.9397332 7.44108877,12.0361363 7.32854856,12.1353976 C6.30234351,13.0405182 5.48253111,14.142046 4.90670921,15.3736417 C4.67279674,15.873945 4.07759725,16.0898975 3.57729394,15.855985 C3.07699063,15.6220725 2.86103818,15.026873 3.09495065,14.5265697 C3.78632108,13.0478332 4.77185952,11.7236304 6.00559658,10.6354649 C6.14093181,10.5160982 6.27863916,10.400111 6.41862647,10.2875572 C6.8490412,9.94149125 7.47850312,10.0098695 7.82456902,10.4402842 Z M16.8809738,8.26016971 C17.4079326,8.42549626 17.7010935,8.98670443 17.5357669,9.51366323 C17.3704404,10.040622 16.8092322,10.3337829 16.2822734,10.1684563 C14.830902,9.71310718 13.2841819,9.63026042 11.781266,9.92477006 C11.2392891,10.0309752 10.7138338,9.67771243 10.6076286,9.13573558 C10.5014235,8.59375872 10.8546863,8.06830339 11.3966631,7.96209825 C13.2255902,7.60370386 15.1103415,7.70465654 16.8809738,8.26016971 Z M41,5 C44.6361026,5 48.1021837,6.14546399 50.9824274,8.23809945 C51.429234,8.5627259 51.5282805,9.18809592 51.2036541,9.6349025 C50.8790276,10.0817091 50.2536576,10.1807556 49.806851,9.85612919 C47.2655063,8.00972013 44.2101751,7 41,7 C40.4477153,7 40,6.55228475 40,6 C40,5.44771525 40.4477153,5 41,5 Z" id="Combined-Shape" fill="url(#linearGradient-1)"></path>
                        </g>
                    </g>
                </g>
            </g>
        </g>
    </g>
</svg>

<svg xmlns="http://www.w3.org/2000/svg" width="64" height="64" viewBox="0 0 64 64">
    <defs>
        <linearGradient id="marketforexprefix__a" x1="1.823%" x2="98.177%" y1="100%" y2="0%">
            <stop offset="0%" stop-color="#FF444F"/>
            <stop offset="100%" stop-color="#FF6444"/>
        </linearGradient>
    </defs>
    <g fill="none" fill-rule="evenodd">
        <path d="M0 0H64V64H0z"/>
        <path fill="url(#marketforexprefix__a)" d="M41 0c12.15 0 22 9.85 22 22 0 10.806-7.79 19.792-18.062 21.649C44.097 55.029 34.596 64 23 64 10.85 64 1 54.15 1 42c0-10.806 7.79-19.792 18.062-21.649C19.903 8.971 29.404 0 41 0zM23 22C11.954 22 3 30.954 3 42s8.954 20 20 20 20-8.954 20-20-8.954-20-20-20zm10.148 32.411c.322.448.22 1.073-.228 1.396-2.753 1.982-6.036 3.101-9.488 3.188l-.486.005c-.552-.002-.999-.45-.997-1.003.002-.513.389-.934.887-.99l.14-.007H23c3.187 0 6.221-.995 8.752-2.816.448-.323 1.073-.221 1.396.227zm14.57 1.42c1.451.456 2.998.539 4.5.244.543-.106 1.068.247 1.174.79.107.541-.247 1.067-.789 1.173-1.829.358-3.713.257-5.484-.298-.527-.165-.82-.727-.655-1.254.166-.527.727-.82 1.254-.654zm12.705-5.687c.5.234.716.83.482 1.33-.691 1.478-1.677 2.802-2.91 3.89-.136.12-.274.236-.414.348-.43.347-1.06.278-1.406-.152-.346-.43-.277-1.06.153-1.406.116-.094.23-.19.343-.29 1.027-.905 1.846-2.006 2.422-3.238.234-.5.83-.716 1.33-.482zm-51.7-3.53c.972 3.01 2.882 5.637 5.431 7.502.446.326.543.951.217 1.397-.326.446-.952.543-1.397.217-2.888-2.112-5.052-5.088-6.154-8.5-.17-.526.118-1.09.644-1.26.526-.17 1.09.119 1.259.644zM23.063 33c.513 0 .936.386.994.883l.006.117v1.05c2.795.2 4.572 2.135 4.572 5.045 0 .553-.448 1-1 1s-1-.447-1-1c0-1.972-1.091-3.063-3.064-3.063-1.848 0-3.187.933-3.5 2.388l7.258 2.636c.077.026.149.062.215.105l.004.002.077.057.004.002.027.023.039.036.025.025.038.042c.01.01.018.021.027.032l.03.04.037.056.023.04c.01.016.018.033.026.05.026.054.047.11.063.167l.012.047.01.048c.009.056.014.113.014.172 0 3.033-1.274 4.85-3.937 5.046v.176c0 .553-.447 1-1 1-.512 0-.935-.386-.993-.883l-.007-.117v-.324C19.676 47.356 18 45.518 18 43c0-.552.448-1 1-1s1 .448 1 1c0 1.835 1.451 3.063 3.571 3.063 1.567 0 2.266-.676 2.403-2.37l-7.315-2.658c-.1-.036-.19-.086-.269-.147l-.019-.015c-.02-.016-.039-.032-.057-.05l-.034-.033-.025-.027c-.112-.125-.193-.278-.23-.447-.017-.074-.026-.15-.025-.227.003-2.514 1.678-4.35 4.063-4.892V34c0-.552.448-1 1-1zm16.1 3.719c.546 1.671.83 3.426.837 5.222 0 1.862-.281 3.637-.834 5.332-.171.526-.736.812-1.26.641-.526-.17-.813-.735-.642-1.26.488-1.496.736-3.061.736-4.71-.006-1.582-.257-3.13-.738-4.604-.171-.525.115-1.09.64-1.261.525-.172 1.09.115 1.261.64zm20.004 2.802l.116.026 3.304.947c.328.095.584.346.687.666l.03.123.095.501c.02.108.015.218-.015.323-.097.339-.427.547-.765.502l-.102-.021-1.213-.349c.464 1.248.711 2.566.736 3.902.01.552-.43 1.008-.982 1.018-.552.01-1.008-.43-1.018-.982-.02-1.144-.238-2.27-.645-3.333l-.503 1.75c-.03.105-.084.202-.157.282-.236.257-.62.298-.902.112l-.09-.07-.374-.344c-.252-.231-.369-.571-.317-.904l.027-.124.947-3.302c.144-.501.64-.806 1.141-.723zM41 2C30.602 2 22.057 9.936 21.09 20.081 21.72 20.028 22.358 20 23 20c5.089 0 9.774 1.728 13.5 4.628v-2.72c-.319-.14-.5-.439-.5-.908 0-.47.181-.769.5-.908v-3.184c-.319-.14-.5-.439-.5-.908 0-.332.211-.58.5-.745V14.5c0-.69.439-1 1-1 .524 0 .94.27.994.867l.006.133v.499h2V14c0-.681.299-1 1-1 .655 0 .958.278.996.869L42.5 14v1c.9-.005 1.935-.14 2.609.488l.13.137c.598.704.95 1.63 1 2.603l.007.244v.43c0 .719-.183 1.296-.498 1.748.593.704.942 1.626.992 2.594l.006.244v.429c0 2.16-1.654 3.041-3.555 3.096l-.191.002h-.473v.013l.005.133L42.5 28c0 .681-.299 1-1 1-.655 0-.958-.278-.996-.869L40.5 28v-.839c0-.05.002-.098.005-.146h-1.397c2.485 2.67 4.314 5.958 5.23 9.609 1.95-.44 3.786-1.269 5.414-2.44.448-.323 1.073-.221 1.396.227.322.448.22 1.073-.228 1.396-1.857 1.337-3.955 2.281-6.184 2.78.154.985.242 1.99.26 3.013C54.127 39.75 61 31.677 61 22c0-11.046-8.954-20-20-20zM14.452 28.435c.324.448.223 1.073-.225 1.396-2.56 1.85-4.486 4.466-5.476 7.469-.173.524-.738.81-1.263.637-.525-.173-.81-.739-.637-1.263 1.123-3.406 3.305-6.369 6.205-8.464.448-.323 1.073-.223 1.396.225zM23 25c3.636 0 7.102 1.145 9.982 3.238.447.325.546.95.222 1.397-.325.447-.95.546-1.397.221C29.266 28.01 26.21 27 23 27c-.552 0-1-.448-1-1s.448-1 1-1zm34.163-8.281c.546 1.671.83 3.426.837 5.222 0 1.862-.281 3.637-.834 5.332-.171.526-.736.812-1.26.641-.526-.17-.813-.735-.642-1.26.488-1.496.736-3.061.736-4.71-.006-1.582-.257-3.13-.738-4.604-.171-.525.115-1.09.64-1.261.525-.172 1.09.115 1.261.64zM2.942 18.84c.552-.01 1.008.43 1.018.982.02 1.144.238 2.27.645 3.332l.503-1.75c.03-.104.084-.2.157-.28.236-.258.62-.299.902-.113l.09.07.374.344c.252.231.369.571.317.904l-.027.124-.947 3.302c-.144.501-.64.806-1.141.723l-.116-.026-3.304-.947c-.328-.095-.584-.346-.687-.666l-.03-.123-.095-.501c-.02-.108-.015-.218.015-.323.097-.339.427-.547.765-.502l.102.021 1.212.348c-.463-1.248-.71-2.565-.735-3.9-.01-.553.43-1.009.982-1.019zm40.172 3.175l-4.614-.001v3H43c.65 0 1.4-.156 1.481-.951l.008-.147v-.43c0-.451-.15-.88-.41-1.184-.214-.252-.644-.285-.965-.287zm-1.641-5.017H38.5v3l4 .001c.65 0 1.4-.157 1.481-.952l.008-.147v-.429c0-.452-.15-.88-.41-1.184-.214-.253-.644-.285-.965-.288H41.5l-.027-.001zm-9.02-8.564c.323.448.222 1.073-.226 1.396-2.56 1.85-4.486 4.466-5.476 7.469-.173.524-.738.81-1.263.637-.525-.173-.81-.739-.637-1.263 1.123-3.406 3.305-6.369 6.205-8.464.448-.323 1.073-.223 1.396.225zM7.824 10.44c.346.43.277 1.06-.153 1.406-.116.094-.23.19-.343.29-1.027.905-1.846 2.006-2.422 3.238-.234.5-.83.716-1.33.482-.5-.234-.716-.83-.482-1.33.691-1.478 1.677-2.802 2.91-3.89.136-.12.274-.236.414-.348.43-.347 1.06-.278 1.406.152zm9.056-2.18c.527.165.82.727.655 1.254-.166.527-.727.82-1.254.654-1.451-.455-2.998-.538-4.5-.243-.543.106-1.068-.247-1.174-.79-.107-.541.247-1.067.789-1.173 1.829-.358 3.713-.257 5.484.298zM41 5c3.636 0 7.102 1.145 9.982 3.238.447.325.546.95.222 1.397-.325.447-.95.546-1.397.221C47.266 8.01 44.21 7 41 7c-.552 0-1-.448-1-1s.448-1 1-1z"/>
    </g>
</svg>
